X: 41758
T: Vanilla, The
R: reel
M: 4/4
K: Gmajor
|:GABd edBd|edgd edBA|G2Bd efge|dBGA AGED|
GABd edBd|efgd edBA|Beed efge|dBAB G4:|
|:g2gb ageg|dgg2 edBA|g2ga bged|eaag a2ba|
gabg ageg|dgg2 edBA|GABd efge|dBAB G4:|

